dataset/mathematica/icon.svg

<?xml version="1.0" encoding="UTF-8" standalone="no"?>
<!-- Generator: Adobe Illustrator 23.0.1, SVG Export Plug-In . SVG Version: 6.00 Build 0)  -->

<svg
   version="1.1"
   id="Livello_1"
   x="0px"
   y="0px"
   viewBox="0 0 128 128"
   enable-background="new 0 0 240.1 240.1"
   xml:space="preserve"
   width="128"
   height="128"
   xmlns:xlink="http://www.w3.org/1999/xlink"
   xmlns="http://www.w3.org/2000/svg"
   xmlns:svg="http://www.w3.org/2000/svg"><defs
   id="defs13"><linearGradient
     id="linearGradient1"><stop
       style="stop-color:#750900;stop-opacity:1;"
       offset="0"
       id="stop2" /><stop
       style="stop-color:#c20f00;stop-opacity:1;"
       offset="0.03220327"
       id="stop4" /><stop
       style="stop-color:#750900;stop-opacity:1;"
       offset="0.06707999"
       id="stop11" /><stop
       style="stop-color:#750900;stop-opacity:1;"
       offset="0.19243833"
       id="stop12" /><stop
       style="stop-color:#c20f00;stop-opacity:1;"
       offset="0.22345902"
       id="stop13" /><stop
       style="stop-color:#750900;stop-opacity:1;"
       offset="0.2629444"
       id="stop14" /><stop
       style="stop-color:#750900;stop-opacity:1;"
       offset="0.49196529"
       id="stop20" /><stop
       style="stop-color:#a80d00;stop-opacity:1;"
       offset="0.49865967"
       id="stop21" /><stop
       style="stop-color:#750900;stop-opacity:1;"
       offset="0.5108909"
       id="stop22" /><stop
       style="stop-color:#750900;stop-opacity:1;"
       offset="0.73665422"
       id="stop15" /><stop
       style="stop-color:#c20f00;stop-opacity:1;"
       offset="0.76582569"
       id="stop16" /><stop
       style="stop-color:#750900;stop-opacity:1;"
       offset="0.80571961"
       id="stop17" /><stop
       style="stop-color:#750900;stop-opacity:1;"
       offset="0.93214953"
       id="stop18" /><stop
       style="stop-color:#c20f00;stop-opacity:1;"
       offset="0.97317052"
       id="stop19" /><stop
       style="stop-color:#750900;stop-opacity:1;"
       offset="1"
       id="stop3" /></linearGradient><linearGradient
     xlink:href="#linearGradient1"
     id="linearGradient3"
     x1="-139"
     y1="125"
     x2="-36.454551"
     y2="125"
     gradientUnits="userSpaceOnUse"
     gradientTransform="translate(151.72728,-58.999999)" /></defs>

<path
   fill="#dd1100"
   d="m 115.27273,82.909091 v -3.999998 l -14.72727,-12.909092 14.72727,-16.90909 v -4 L 93.454548,44.727271 95.636366,22.363637 V 18.363638 L 75.454547,31.09091 64.000005,12.000001 52.54546,31.09091 32.36364,18.363638 v 3.999999 l 2.18182,22.363634 -21.81818,0.36364 v 4 l 14.72727,16.90909 -14.72727,12.909092 v 3.999998 l 21.81818,4.36364 -2.18182,18.363629 v 4 L 52.54546,100.90909 64.000005,120 l 11.454542,-19.09091 20.181819,8.72727 v -3.66791 -0.33209 L 93.454548,87.272731"
   id="path1-7"
   style="fill:url(#linearGradient3);stroke-width:0.999998" /><path
   fill="#dd1100"
   d="M 115.27273,78.909093 100.54546,62.000002 115.27273,45.090911 93.454548,40.727275 95.636366,18.363638 75.454547,27.090911 64.000005,8.000002 52.54546,27.090911 32.36364,18.363638 34.54546,40.727275 12.72728,45.090911 27.45455,62.000002 12.72728,78.909093 34.54546,83.272729 32.36364,105.63636 52.54546,96.90909 64.000005,116 75.454547,96.90909 95.636366,105.63636 93.454548,83.272728"
   id="path1"
   style="stroke-width:0.999998" /><path
   fill="#ffffff"
   d="m 76.545456,45.090911 c 0,0 -4.909091,3.272727 -12.545451,3.272727 -7.636365,0 -11.999995,-3.272727 -11.999995,-3.272727 0,0 1.09091,5.454545 -0.54546,12.545455 -1.63636,4.363636 -3.81818,7.636363 -7.09091,10.363636 0,0 6.54546,1.090909 11.45455,4.363636 4.909085,3.818182 8.181815,10.363637 8.181815,10.363637 0,0 2.72727,-6.545455 7.63636,-9.818182 4.909091,-3.818182 12.000001,-4.363636 12.000001,-4.363636 0,0 -4.909091,-6 -7.09091,-10.909091 -2.181818,-5.454546 0,-12.545455 0,-12.545455 z m -7.090909,24 c -3.272722,2.181817 -5.454542,6 -5.454542,6 l -5.454549,-6 -7.090906,-2.727273 c 0,0 2.72727,-3.818181 3.81818,-7.636363 1.09091,-2.181819 1.09091,-4.909091 1.09091,-7.636364 0,0 3.818175,1.636364 7.636365,1.636364 3.27272,0 7.63636,-1.636364 7.63636,-1.636364 0,0 -1.090909,4.363636 0.545455,8.181817 1.090909,3.272728 4.363636,7.090909 4.363636,7.090909 z M 84.727275,54.363638 c -1.090909,-3.818182 2.727272,-24.545454 2.727272,-24.545454 0,0 -14.181818,9.818181 -24.000002,9.818181 -9.818175,0 -22.909085,-9.818181 -22.909085,-9.818181 0,0 4.36364,14.727272 1.63636,24.545454 -2.18181,9.272728 -15.81818,20.181819 -15.81818,20.181819 0,0 17.45455,0.545454 24,5.454545 7.090906,4.363636 13.636365,21.818178 13.636365,21.818178 0,0 8.72727,-19.090905 12.545451,-21.818178 3.818182,-2.727273 25.090914,-6 25.090914,-6 0,0 -15.272732,-15.272727 -16.909095,-19.636364 z M 74.363638,76.727275 c -7.090913,4.363636 -10.363633,15.272727 -10.363633,15.272727 0,0 -5.454549,-12 -10.909085,-15.818182 -5.45455,-3.818182 -17.45455,-4.909091 -17.45455,-4.909091 0,0 9.27273,-7.636363 11.45455,-15.272727 2.18181,-7.090909 -0.54546,-18 -0.54546,-18 0,0 9.81818,6 16.909085,6 7.636366,0 18.000002,-6 18.000002,-6 0,0 -3.272727,11.454545 -0.545454,18 2.181818,7.090909 11.454545,15.272727 11.454545,15.272727 0,0 -10.909091,0.545455 -18,5.454546"
   id="path2"
   style="stroke-width:0.999998" /></svg>

<svg xmlns="http://www.w3.org/2000/svg" xmlns:xlink="http://www.w3.org/1999/xlink" xml:space="preserve" width="128" height="128" viewBox="0 0 128 128"><defs><linearGradient id="a"><stop offset="0" style="stop-color:#750900;stop-opacity:1"/><stop offset=".032" style="stop-color:#c20f00;stop-opacity:1"/><stop offset=".067" style="stop-color:#750900;stop-opacity:1"/><stop offset=".192" style="stop-color:#750900;stop-opacity:1"/><stop offset=".223" style="stop-color:#c20f00;stop-opacity:1"/><stop offset=".263" style="stop-color:#750900;stop-opacity:1"/><stop offset=".492" style="stop-color:#750900;stop-opacity:1"/><stop offset=".499" style="stop-color:#a80d00;stop-opacity:1"/><stop offset=".511" style="stop-color:#750900;stop-opacity:1"/><stop offset=".737" style="stop-color:#750900;stop-opacity:1"/><stop offset=".766" style="stop-color:#c20f00;stop-opacity:1"/><stop offset=".806" style="stop-color:#750900;stop-opacity:1"/><stop offset=".932" style="stop-color:#750900;stop-opacity:1"/><stop offset=".973" style="stop-color:#c20f00;stop-opacity:1"/><stop offset="1" style="stop-color:#750900;stop-opacity:1"/></linearGradient><linearGradient xlink:href="#a" id="b" x1="-139" x2="-36.455" y1="125" y2="125" gradientTransform="translate(151.727 -59)" gradientUnits="userSpaceOnUse"/></defs><path fill="#d10" d="M115.273 82.91v-4L100.545 66l14.728-16.91v-4l-21.818-.363 2.181-22.363v-4L75.455 31.09 64 12 52.545 31.09 32.364 18.365v4l2.181 22.363-21.818.364v4L27.455 66 12.727 78.91v4l21.818 4.363-2.181 18.363v4l20.181-8.727L64 120l11.455-19.09 20.181 8.726v-4l-2.181-18.363" style="fill:url(#b);stroke-width:.999998"/><path fill="#d10" d="M115.273 78.91 100.545 62l14.728-16.91-21.818-4.363 2.181-22.363-20.181 8.727L64 8 52.545 27.09l-20.181-8.726 2.181 22.363-21.818 4.364L27.455 62 12.727 78.91l21.818 4.363-2.181 22.363 20.181-8.727L64 116l11.455-19.09 20.181 8.726-2.181-22.363" style="stroke-width:.999998"/><path fill="#fff" d="M76.545 45.09S71.636 48.365 64 48.365 52 45.09 52 45.09s1.09 5.454-.545 12.545C49.818 62 47.636 65.273 44.364 68c0 0 6.545 1.09 11.454 4.364C60.728 76.182 64 82.727 64 82.727s2.727-6.545 7.636-9.818c4.91-3.818 12-4.364 12-4.364s-4.909-6-7.09-10.909c-2.182-5.454 0-12.545 0-12.545m-7.09 24c-3.273 2.183-5.455 6-5.455 6l-5.455-6-7.09-2.726s2.727-3.819 3.818-7.637c1.09-2.182 1.09-4.909 1.09-7.636 0 0 3.819 1.636 7.637 1.636 3.273 0 7.636-1.636 7.636-1.636s-1.09 4.364.546 8.182c1.09 3.272 4.363 7.09 4.363 7.09zm15.272-14.726c-1.09-3.819 2.728-24.546 2.728-24.546s-14.182 9.818-24 9.818c-9.819 0-22.91-9.818-22.91-9.818s4.364 14.727 1.637 24.546C40 63.636 26.364 74.545 26.364 74.545s17.454.546 24 5.455C57.454 84.364 64 101.818 64 101.818S72.727 82.728 76.545 80c3.819-2.727 25.091-6 25.091-6S86.364 58.727 84.727 54.364M74.364 76.727C67.273 81.091 64 92 64 92s-5.455-12-10.91-15.818c-5.454-3.818-17.454-4.91-17.454-4.91S44.91 63.637 47.091 56c2.182-7.09-.546-18-.546-18s9.819 6 16.91 6c7.636 0 18-6 18-6s-3.273 11.455-.546 18c2.182 7.09 11.455 15.273 11.455 15.273s-10.91.545-18 5.454" style="stroke-width:.999998"/></svg>
